art/system/pv1000.svg

<svg xmlns="http://www.w3.org/2000/svg" xml:space="preserve" id="Layer_1" x="0" y="0" viewBox="0 0 3840 1547.4"><style id="style740" type="text/css">.st0{fill:#2a4e78}</style><g id="g774" style="fill:#fff;fill-opacity:1"><g id="g772" style="fill:#fff;fill-opacity:1"><g id="g752" style="fill:#fff;fill-opacity:1"><path id="path742" d="M817.2 720.7c39.3 0 74.2 15.2 104.6 45.6s45.6 62.4 45.6 95.9c0 79.1-44.1 137.8-132.4 176-88.3 38.3-184.3 57.4-288 57.4-148.8 0-277.2-54-385.1-161.9C54 825.7 0 697.4 0 548.6q0-223.95 163.5-385.5C272.5 55.4 400.3 1.6 547 1.6c107.4 0 204.3 18.9 290.8 56.6S967.4 154.8 967.4 235c0 29.9-14.4 60.6-43.3 92.3s-64.5 47.5-107 47.5c-26.8 0-59.8-8.9-99.2-26.7-57.7-26.2-114.9-39.3-171.5-39.3-65 0-122.4 24.1-171.9 72.3-49.6 48.2-74.3 104-74.3 167.4 0 62.4 24.6 117.9 74 166.6 49.3 48.7 106.7 73.1 172.3 73.1 56.1 0 113.3-13.4 171.5-40.1 39.9-18.3 72.9-27.4 99.2-27.4" class="st0" style="fill:#fff;fill-opacity:1;stroke-width:1.11111" transform="matrix(.9 0 0 .9 203.1 133.29)"/><path id="path744" d="m1164.6 928.1-34.1 67.6c-32 62.4-78.1 93.5-138.4 93.5-42.4 0-78.6-16-108.5-47.9s-44.8-67.3-44.8-106.1c0-20.9 3.1-38.2 9.4-51.9l356.8-766c15.2-33.1 36.6-59.1 64.1-78s56.4-28.4 86.8-28.4c30.9 0 60.2 9.6 87.7 28.6 27.5 19.1 48.9 44.9 64.1 77.3l353.5 766.4q10.2 22.8 10.2 51.9 0 58.95-44.1 106.5c-29.4 31.7-65.3 47.5-107.7 47.5-59.8 0-105.9-31.2-138.4-93.5l-35.9-67.6h-380.7zm261.3-289.2-70.4-153.2-70.2 153.2z" class="st0" style="fill:#fff;fill-opacity:1;stroke-width:1.11111" transform="matrix(.9 0 0 .9 203.1 133.29)"/><path id="path746" d="M2104.3 323c0 12.1 4 20 12.2 24 8.1 3.9 30.5 8.9 67.2 14.9s71.7 15.6 105.3 28.7c33.5 13.1 68.2 37.3 104.1 72.7s62.7 76.1 80.5 122.2 26.7 97.2 26.7 153.2c0 89.1-36.3 170.5-108.8 244.4S2235 1094 2139.6 1094c-102.2 0-188.6-26.8-259.3-80.6-70.7-53.7-106.1-118-106.1-192.9 0-38.2 14.9-71.6 44.8-100.2 29.9-28.5 65.7-42.8 107.7-42.8 22 0 42.6 3.9 61.7 11.8s42.6 27.1 70.4 57.8 53.2 46 76.2 46c45 0 67.6-26.2 67.6-78.6 0-35.1-39.8-58.7-119.5-70.7-83.3-12.1-150-47.9-200-107.7q-75-89.55-75-220.8c0-82.8 30.8-155.7 92.3-218.9 61.6-63.1 142.9-94.7 244-94.7 90.6 0 157.3 14.3 200 42.8 42.7 28.6 64 73.2 64 134 0 30.9-14.7 61.2-44 90.8-29.4 29.6-64.2 44.4-104.5 44.4-13.6 0-33.4-3.8-59.3-11.4s-47.8-11.4-65.6-11.4c-6.3 0-13 3.4-20 10.2-7.2 6.7-10.7 14-10.7 21.9" class="st0" style="fill:#fff;fill-opacity:1;stroke-width:1.11111" transform="matrix(.9 0 0 .9 203.1 133.29)"/><path id="path748" d="M2789 918.7c0 49.8-14.1 89.9-42.4 120.2-28.3 30.4-64.5 45.6-108.5 45.6-43.5 0-79.2-15.2-107.3-45.6-28-30.4-42-70.5-42-120.2V178.4c0-49.8 14.1-90.1 42.4-121S2595.1 11 2638.1 11c42.9 0 78.9 15.5 107.7 46.4s43.2 71.3 43.2 121z" class="st0" style="fill:#fff;fill-opacity:1;stroke-width:1.11111" transform="matrix(.9 0 0 .9 203.1 133.29)"/><path id="path750" d="M3292.6 0c150.8 0 279.7 54.9 386.8 164.6 107 109.8 160.6 237.7 160.6 383.9q0 219.3-160.2 383.1c-106.8 109.2-235.8 163.9-387.2 163.9-150.8 0-279.6-54.6-386.4-163.9S2746 694.7 2746 548.6c0-146.2 53.4-274.1 160.2-383.9Q3066.4 0 3292.6 0m0 794.5c68.7 0 127.1-24.4 175.1-73.1s72-106.4 72-172.9c0-63.9-24.3-121.2-72.8-171.7-48.5-50.6-106.7-75.8-174.4-75.8-64.5 0-121.7 25.2-171.6 75.4-49.8 50.3-74.8 107.7-74.8 172.1q0 99 72 172.5c48.2 49.1 106.3 73.5 174.5 73.5" class="st0" style="fill:#fff;fill-opacity:1;stroke-width:1.11111" transform="matrix(.9 0 0 .9 203.1 133.29)"/></g><g id="g762" style="fill:#fff;fill-opacity:1"><path id="path754" d="M1862.7 1484.9c0 18.8-5.3 33.9-16 45.4-10.6 11.5-24.2 17.2-40.5 17.2s-29.9-5.7-40.7-17.2c-10.7-11.5-16.1-26.6-16.1-45.4v-184.8c-16.6 4.6-26.3 6.8-29.1 6.8-11.9 0-23.4-5.2-34.7-15.7s-16.9-22.6-16.9-36.5q0-35.25 20.4-48.6l85-54.6c9.1-6.1 18.6-9.2 28.4-9.2 18 0 32.5 5.6 43.5 16.9 11.1 11.3 16.6 23.2 16.6 35.9v289.8z" class="st0" style="fill:#fff;fill-opacity:1;stroke-width:1.11111" transform="matrix(.9 0 0 .9 203.1 133.29)"/><path id="path756" d="M2038.3 1142.3c57.3 0 106.1 20.4 146.2 61.1s60.2 88 60.2 141.8c0 53.6-20.1 100.7-60.2 141.3-40.2 40.6-88.9 60.9-146.2 60.9s-106.1-20.3-146.2-60.9-60.2-87.7-60.2-141.3c0-53.8 20-101 60.1-141.8 40-40.7 88.8-61.1 146.3-61.1m0 293.3c25.2 0 47-8.9 65.5-26.7 18.4-17.8 27.7-39 27.7-63.8 0-25.3-9.2-46.8-27.5-64.5s-40.2-26.5-65.6-26.5c-26.8 0-49 9-66.6 27.1-17.7 18.1-26.5 39.4-26.5 63.9 0 24.9 9.1 46.2 27.4 63.9 18.1 17.8 40 26.6 65.6 26.6" class="st0" style="fill:#fff;fill-opacity:1;stroke-width:1.11111" transform="matrix(.9 0 0 .9 203.1 133.29)"/><path id="path758" d="M2410.6 1142.3c57.3 0 106.1 20.4 146.2 61.1s60.2 88 60.2 141.8c0 53.6-20.1 100.7-60.2 141.3-40.2 40.6-88.9 60.9-146.2 60.9s-106.1-20.3-146.2-60.9-60.2-87.7-60.2-141.3c0-53.8 20-101 60.1-141.8 40-40.7 88.8-61.1 146.3-61.1m0 293.3c25.2 0 47-8.9 65.5-26.7 18.4-17.8 27.7-39 27.7-63.8 0-25.3-9.2-46.8-27.5-64.5s-40.2-26.5-65.6-26.5c-26.8 0-49 9-66.6 27.1-17.7 18.1-26.5 39.4-26.5 63.9 0 24.9 9.1 46.2 27.4 63.9 18.1 17.8 40 26.6 65.6 26.6" class="st0" style="fill:#fff;fill-opacity:1;stroke-width:1.11111" transform="matrix(.9 0 0 .9 203.1 133.29)"/><path id="path760" d="M2782.9 1142.3c57.3 0 106.1 20.4 146.2 61.1s60.2 88 60.2 141.8c0 53.6-20.1 100.7-60.2 141.3-40.2 40.6-88.9 60.9-146.2 60.9s-106.1-20.3-146.2-60.9-60.2-87.7-60.2-141.3c0-53.8 20-101 60.1-141.8 40-40.7 88.7-61.1 146.3-61.1m0 293.3c25.2 0 47-8.9 65.5-26.7 18.4-17.8 27.7-39 27.7-63.8 0-25.3-9.2-46.8-27.5-64.5s-40.2-26.5-65.6-26.5c-26.8 0-49 9-66.6 27.1-17.7 18.1-26.5 39.4-26.5 63.9 0 24.9 9.1 46.2 27.4 63.9 18.1 17.8 40 26.6 65.6 26.6" class="st0" style="fill:#fff;fill-opacity:1;stroke-width:1.11111" transform="matrix(.9 0 0 .9 203.1 133.29)"/></g><g id="g768" style="fill:#fff;fill-opacity:1"><path id="path764" d="M948.6 1389.7v95.2c0 18.8-5.3 33.9-16 45.4s-24.3 17.2-40.9 17.2c-16.4 0-29.9-5.7-40.5-17.2s-15.9-26.6-15.9-45.4V1194c0-13.8 5.8-25.9 17.3-36.2 11.6-10.3 25.8-15.4 42.6-15.4h91.1c37.2 0 67.4 12 90.8 35.9 23.3 23.9 35 53.5 35 88.7 0 29.5-11.2 57.3-33.7 83.5-22.4 26.2-47.1 39.3-74 39.3h-55.8zm0-105.3h39.5c4.9 0 9-1.9 12.2-5.6 3.1-3.8 4.7-7.9 4.7-12.5 0-4.5-1.6-8.7-4.7-12.6-3.2-3.9-7.2-5.8-12.2-5.8h-39.5z" class="st0" style="fill:#fff;fill-opacity:1;stroke-width:1.11111" transform="matrix(.9 0 0 .9 203.1 133.29)"/><path id="path766" d="m1277.5 1368.3 84.3-192.3q6.6-14.25 19.8-24c8.9-6.4 17.7-9.7 26.3-9.7 19.7 0 35.2 5.4 46.6 16.2s17 24.2 17 40.2c0 7.7-1.3 14.2-3.9 19.6L1333.2 1508q-8.55 18.75-24 29.1c-10.2 6.9-21.3 10.4-33.1 10.4-10.8 0-21.4-3.6-31.8-10.7-10.3-7.1-18.3-16.7-23.8-28.8l-134.6-289.7a54 54 0 0 1-3.5-19.6c0-14.2 5.1-27.2 15.4-38.9s23.2-17.5 38.6-17.5c27.5 0 46.2 11.2 56.1 33.5z" class="st0" style="fill:#fff;fill-opacity:1;stroke-width:1.11111" transform="matrix(.9 0 0 .9 203.1 133.29)"/></g><path id="path770" d="M1444.1 1352.4c0-30.9 25-55.9 55.9-55.9h96c30.9 0 55.9 25 55.9 55.9s-25 55.9-55.9 55.9h-96c-30.9 0-55.9-25-55.9-55.9" class="st0" style="fill:#fff;fill-opacity:1;stroke-width:1.11111" transform="matrix(.9 0 0 .9 203.1 133.29)"/></g></g></svg>

<?xml version="1.0" encoding="utf-8"?>
<svg version="1.1" id="Layer_1" x="0px" y="0px" viewBox="0 0 3840 1547.4" style="enable-background:new 0 0 3840 1547.4;" xmlns="http://www.w3.org/2000/svg">
  <style type="text/css">
	.st0{fill:#2A4E78;}
</style>
  <path class="st0" d="M 817.2 720.7 C 856.5 720.7 891.4 735.9 921.8 766.3 C 952.2 796.7 967.4 828.7 967.4 862.2 C 967.4 941.3 923.3 1000 835 1038.2 C 746.7 1076.5 650.7 1095.6 547 1095.6 C 398.2 1095.6 269.8 1041.6 161.9 933.7 C 54 825.7 0 697.4 0 548.6 C 0 399.3 54.5 270.8 163.5 163.1 C 272.5 55.4 400.3 1.6 547 1.6 C 654.4 1.6 751.3 20.5 837.8 58.2 C 924.3 95.9 967.4 154.8 967.4 235 C 967.4 264.9 953 295.6 924.1 327.3 C 895.2 359 859.6 374.8 817.1 374.8 C 790.3 374.8 757.3 365.9 717.9 348.1 C 660.2 321.9 603 308.8 546.4 308.8 C 481.4 308.8 424 332.9 374.5 381.1 C 324.9 429.3 300.2 485.1 300.2 548.5 C 300.2 610.9 324.8 666.4 374.2 715.1 C 423.5 763.8 480.9 788.2 546.5 788.2 C 602.6 788.2 659.8 774.8 718 748.1 C 757.9 729.8 790.9 720.7 817.2 720.7 Z" style="fill: rgb(255, 255, 255);"/>
  <path class="st0" d="M 1164.6 928.1 L 1130.5 995.7 C 1098.5 1058.1 1052.4 1089.2 992.1 1089.2 C 949.7 1089.2 913.5 1073.2 883.6 1041.3 C 853.7 1009.4 838.8 974 838.8 935.2 C 838.8 914.3 841.9 897 848.2 883.3 L 1205 117.3 C 1220.2 84.2 1241.6 58.2 1269.1 39.3 C 1296.6 20.4 1325.5 10.9 1355.9 10.9 C 1386.8 10.9 1416.1 20.5 1443.6 39.5 C 1471.1 58.6 1492.5 84.4 1507.7 116.8 L 1861.2 883.2 C 1868 898.4 1871.4 915.7 1871.4 935.1 C 1871.4 974.4 1856.7 1009.9 1827.3 1041.6 C 1797.9 1073.3 1762 1089.1 1719.6 1089.1 C 1659.8 1089.1 1613.7 1057.9 1581.2 995.6 L 1545.3 928 L 1164.6 928 L 1164.6 928.1 Z M 1425.9 638.9 L 1355.5 485.7 L 1285.3 638.9 L 1425.9 638.9 Z" style="fill: rgb(255, 255, 255);"/>
  <path class="st0" d="M 2104.3 323 C 2104.3 335.1 2108.3 343 2116.5 347 C 2124.6 350.9 2147 355.9 2183.7 361.9 C 2220.4 367.9 2255.4 377.5 2289 390.6 C 2322.5 403.7 2357.2 427.9 2393.1 463.3 C 2429 498.7 2455.8 539.4 2473.6 585.5 C 2491.4 631.6 2500.3 682.7 2500.3 738.7 C 2500.3 827.8 2464 909.2 2391.5 983.1 C 2319 1057 2235 1094 2139.6 1094 C 2037.4 1094 1951 1067.2 1880.3 1013.4 C 1809.6 959.7 1774.2 895.4 1774.2 820.5 C 1774.2 782.3 1789.1 748.9 1819 720.3 C 1848.9 691.8 1884.7 677.5 1926.7 677.5 C 1948.7 677.5 1969.3 681.4 1988.4 689.3 C 2007.5 697.2 2031 716.4 2058.8 747.1 C 2086.6 777.8 2112 793.1 2135 793.1 C 2180 793.1 2202.6 766.9 2202.6 714.5 C 2202.6 679.4 2162.8 655.8 2083.1 643.8 C 1999.8 631.7 1933.1 595.9 1883.1 536.1 C 1833.1 476.4 1808.1 402.8 1808.1 315.3 C 1808.1 232.5 1838.9 159.6 1900.4 96.4 C 1962 33.3 2043.3 1.7 2144.4 1.7 C 2235 1.7 2301.7 16 2344.4 44.5 C 2387.1 73.1 2408.4 117.7 2408.4 178.5 C 2408.4 209.4 2393.7 239.7 2364.4 269.3 C 2335 298.9 2300.2 313.7 2259.9 313.7 C 2246.3 313.7 2226.5 309.9 2200.6 302.3 C 2174.7 294.7 2152.8 290.9 2135 290.9 C 2128.7 290.9 2122 294.3 2115 301.1 C 2107.8 307.8 2104.3 315.1 2104.3 323 Z" style="fill: rgb(255, 255, 255);"/>
  <path class="st0" d="M 2789 918.7 C 2789 968.5 2774.9 1008.6 2746.6 1038.9 C 2718.3 1069.3 2682.1 1084.5 2638.1 1084.5 C 2594.6 1084.5 2558.9 1069.3 2530.8 1038.9 C 2502.8 1008.5 2488.8 968.4 2488.8 918.7 L 2488.8 178.4 C 2488.8 128.6 2502.9 88.3 2531.2 57.4 C 2559.5 26.5 2595.1 11 2638.1 11 C 2681 11 2717 26.5 2745.8 57.4 C 2774.6 88.3 2789 128.7 2789 178.4 L 2789 918.7 L 2789 918.7 Z" style="fill: rgb(255, 255, 255);"/>
  <path class="st0" d="M 3292.6 0 C 3443.4 0 3572.3 54.9 3679.4 164.6 C 3786.4 274.4 3840 402.3 3840 548.5 C 3840 694.7 3786.6 822.4 3679.8 931.6 C 3573 1040.8 3444 1095.5 3292.6 1095.5 C 3141.8 1095.5 3013 1040.9 2906.2 931.6 C 2799.4 822.3 2746 694.7 2746 548.6 C 2746 402.4 2799.4 274.5 2906.2 164.7 C 3013 54.9 3141.8 0 3292.6 0 Z M 3292.6 794.5 C 3361.3 794.5 3419.7 770.1 3467.7 721.4 C 3515.7 672.7 3539.7 615 3539.7 548.5 C 3539.7 484.6 3515.4 427.3 3466.9 376.8 C 3418.4 326.2 3360.2 301 3292.5 301 C 3228 301 3170.8 326.2 3120.9 376.4 C 3071.1 426.7 3046.1 484.1 3046.1 548.5 C 3046.1 614.5 3070.1 672 3118.1 721 C 3166.3 770.1 3224.4 794.5 3292.6 794.5 Z" style="fill: rgb(255, 255, 255);"/>
  <path class="st0" d="M 1862.7 1484.9 C 1862.7 1503.7 1857.4 1518.8 1846.7 1530.3 C 1836.1 1541.8 1822.5 1547.5 1806.2 1547.5 C 1789.9 1547.5 1776.3 1541.8 1765.5 1530.3 C 1754.8 1518.8 1749.4 1503.7 1749.4 1484.9 L 1749.4 1300.1 C 1732.8 1304.7 1723.1 1306.9 1720.3 1306.9 C 1708.4 1306.9 1696.9 1301.7 1685.6 1291.2 C 1674.3 1280.7 1668.7 1268.6 1668.7 1254.7 C 1668.7 1231.2 1675.5 1215 1689.1 1206.1 L 1774.1 1151.5 C 1783.2 1145.4 1792.7 1142.3 1802.5 1142.3 C 1820.5 1142.3 1835 1147.9 1846 1159.2 C 1857.1 1170.5 1862.6 1182.4 1862.6 1195.1 L 1862.6 1484.9 L 1862.7 1484.9 Z" style="fill: rgb(255, 255, 255);"/>
  <path class="st0" d="M 2038.3 1142.3 C 2095.6 1142.3 2144.4 1162.7 2184.5 1203.4 C 2224.6 1244.1 2244.7 1291.4 2244.7 1345.2 C 2244.7 1398.8 2224.6 1445.9 2184.5 1486.5 C 2144.3 1527.1 2095.6 1547.4 2038.3 1547.4 C 1981 1547.4 1932.2 1527.1 1892.1 1486.5 C 1852 1445.9 1831.9 1398.8 1831.9 1345.2 C 1831.9 1291.4 1851.9 1244.2 1892 1203.4 C 1932 1162.7 1980.8 1142.3 2038.3 1142.3 Z M 2038.3 1435.6 C 2063.5 1435.6 2085.3 1426.7 2103.8 1408.9 C 2122.2 1391.1 2131.5 1369.9 2131.5 1345.1 C 2131.5 1319.8 2122.3 1298.3 2104 1280.6 C 2085.7 1262.9 2063.8 1254.1 2038.4 1254.1 C 2011.6 1254.1 1989.4 1263.1 1971.8 1281.2 C 1954.1 1299.3 1945.3 1320.6 1945.3 1345.1 C 1945.3 1370 1954.4 1391.3 1972.7 1409 C 1990.8 1426.8 2012.7 1435.6 2038.3 1435.6 Z" style="fill: rgb(255, 255, 255);"/>
  <path class="st0" d="M 2410.6 1142.3 C 2467.9 1142.3 2516.7 1162.7 2556.8 1203.4 C 2596.9 1244.1 2617 1291.4 2617 1345.2 C 2617 1398.8 2596.9 1445.9 2556.8 1486.5 C 2516.6 1527.1 2467.9 1547.4 2410.6 1547.4 C 2353.3 1547.4 2304.5 1527.1 2264.4 1486.5 C 2224.3 1445.9 2204.2 1398.8 2204.2 1345.2 C 2204.2 1291.4 2224.2 1244.2 2264.3 1203.4 C 2304.3 1162.7 2353.1 1142.3 2410.6 1142.3 Z M 2410.6 1435.6 C 2435.8 1435.6 2457.6 1426.7 2476.1 1408.9 C 2494.5 1391.1 2503.8 1369.9 2503.8 1345.1 C 2503.8 1319.8 2494.6 1298.3 2476.3 1280.6 C 2458 1262.9 2436.1 1254.1 2410.7 1254.1 C 2383.9 1254.1 2361.7 1263.1 2344.1 1281.2 C 2326.4 1299.3 2317.6 1320.6 2317.6 1345.1 C 2317.6 1370 2326.7 1391.3 2345 1409 C 2363.1 1426.8 2385 1435.6 2410.6 1435.6 Z" style="fill: rgb(255, 255, 255);"/>
  <path class="st0" d="M 2782.9 1142.3 C 2840.2 1142.3 2889 1162.7 2929.1 1203.4 C 2969.2 1244.1 2989.3 1291.4 2989.3 1345.2 C 2989.3 1398.8 2969.2 1445.9 2929.1 1486.5 C 2888.9 1527.1 2840.2 1547.4 2782.9 1547.4 C 2725.6 1547.4 2676.8 1527.1 2636.7 1486.5 C 2596.6 1445.9 2576.5 1398.8 2576.5 1345.2 C 2576.5 1291.4 2596.5 1244.2 2636.6 1203.4 C 2676.6 1162.7 2725.3 1142.3 2782.9 1142.3 Z M 2782.9 1435.6 C 2808.1 1435.6 2829.9 1426.7 2848.4 1408.9 C 2866.8 1391.1 2876.1 1369.9 2876.1 1345.1 C 2876.1 1319.8 2866.9 1298.3 2848.6 1280.6 C 2830.3 1262.9 2808.4 1254.1 2783 1254.1 C 2756.2 1254.1 2734 1263.1 2716.4 1281.2 C 2698.7 1299.3 2689.9 1320.6 2689.9 1345.1 C 2689.9 1370 2699 1391.3 2717.3 1409 C 2735.4 1426.8 2757.3 1435.6 2782.9 1435.6 Z" style="fill: rgb(255, 255, 255);"/>
  <path class="st0" d="M 948.6 1389.7 L 948.6 1484.9 C 948.6 1503.7 943.3 1518.8 932.6 1530.3 C 921.9 1541.8 908.3 1547.5 891.7 1547.5 C 875.3 1547.5 861.8 1541.8 851.2 1530.3 C 840.6 1518.8 835.3 1503.7 835.3 1484.9 L 835.3 1194 C 835.3 1180.2 841.1 1168.1 852.6 1157.8 C 864.2 1147.5 878.4 1142.4 895.2 1142.4 L 986.3 1142.4 C 1023.5 1142.4 1053.7 1154.4 1077.1 1178.3 C 1100.4 1202.2 1112.1 1231.8 1112.1 1267 C 1112.1 1296.5 1100.9 1324.3 1078.4 1350.5 C 1056 1376.7 1031.3 1389.8 1004.4 1389.8 L 948.6 1389.8 L 948.6 1389.7 Z M 948.6 1284.4 L 988.1 1284.4 C 993 1284.4 997.1 1282.5 1000.3 1278.8 C 1003.4 1275 1005 1270.9 1005 1266.3 C 1005 1261.8 1003.4 1257.6 1000.3 1253.7 C 997.1 1249.8 993.1 1247.9 988.1 1247.9 L 948.6 1247.9 L 948.6 1284.4 Z" style="fill: rgb(255, 255, 255);"/>
  <path class="st0" d="M 1277.5 1368.3 L 1361.8 1176 C 1366.2 1166.5 1372.8 1158.5 1381.6 1152 C 1390.5 1145.6 1399.3 1142.3 1407.9 1142.3 C 1427.6 1142.3 1443.1 1147.7 1454.5 1158.5 C 1465.9 1169.3 1471.5 1182.7 1471.5 1198.7 C 1471.5 1206.4 1470.2 1212.9 1467.6 1218.3 L 1333.2 1508 C 1327.5 1520.5 1319.5 1530.2 1309.2 1537.1 C 1299 1544 1287.9 1547.5 1276.1 1547.5 C 1265.3 1547.5 1254.7 1543.9 1244.3 1536.8 C 1234 1529.7 1226 1520.1 1220.5 1508 L 1085.9 1218.3 C 1083.6 1212.4 1082.4 1205.8 1082.4 1198.7 C 1082.4 1184.5 1087.5 1171.5 1097.8 1159.8 C 1108.1 1148.1 1121 1142.3 1136.4 1142.3 C 1163.9 1142.3 1182.6 1153.5 1192.5 1175.8 L 1277.5 1368.3 Z" style="fill: rgb(255, 255, 255);"/>
  <path class="st0" d="M 1444.1 1352.4 C 1444.1 1321.5 1469.1 1296.5 1500 1296.5 L 1596 1296.5 C 1626.9 1296.5 1651.9 1321.5 1651.9 1352.4 C 1651.9 1383.3 1626.9 1408.3 1596 1408.3 L 1500 1408.3 C 1469.1 1408.3 1444.1 1383.3 1444.1 1352.4 Z" style="fill: rgb(255, 255, 255);"/>
</svg>
